packages/foundations/assets/icons/functional/images/technology/bug.svg

<svg xmlns="http://www.w3.org/2000/svg" width="32" height="32" fill="none"><path fill="#1A1C1F" fill-rule="evenodd" d="M10.08 3.032q-.585.152-.744.745c-.051.188-.045.304.028.64.262 1.187.876 2.398 1.649 3.25l.303.333-.303.333c-.763.841-1.346 1.977-1.635 3.186-.135.565-.191 1.561-.102 1.829.095.287.417.551.759.622.203.042 1.992.055 6.126.044 5.719-.014 5.843-.016 6.049-.121.115-.058.283-.199.373-.312.164-.205.164-.205.16-.88-.003-.74-.09-1.22-.356-1.981-.304-.867-.822-1.749-1.4-2.387L20.684 8l.303-.333c.78-.859 1.408-2.103 1.647-3.26.096-.466.06-.731-.137-1.008-.272-.381-.925-.496-1.322-.233-.289.191-.37.331-.518.902a5.4 5.4 0 0 1-1.283 2.374l-.307.335-.507-.221a9 9 0 0 0-1.013-.359c-.464-.125-.596-.137-1.547-.137s-1.083.012-1.547.137a9 9 0 0 0-1.013.359l-.507.221-.308-.335c-.714-.777-1.006-1.352-1.367-2.693-.069-.255-.271-.519-.478-.625-.178-.091-.528-.137-.7-.092m6.56 5.024c.936.151 1.833.616 2.562 1.331.727.713 1.156 1.429 1.412 2.36l.07.253h-4.687c-3.725 0-4.683-.014-4.666-.067.386-1.238.688-1.772 1.412-2.499 1.079-1.085 2.529-1.597 3.897-1.378M4.201 14.343c-.871.407-1.664.789-1.762.849-.392.242-.537.835-.312 1.276.178.349.628.588.994.529.097-.016.783-.311 1.525-.655s1.374-.626 1.406-.626.483.206 1.003.458l.945.459v1.762l-.177-.074c-.097-.041-.473-.22-.834-.398-.945-.465-.869-.475-2.585.323-2.006.933-2.09.98-2.252 1.257-.246.419-.136 1.024.233 1.286.213.152.563.244.77.203.098-.019.787-.32 1.53-.668l1.352-.633.488.227c.269.125.707.337.974.471l.486.244.028.87c.016.479.021.878.012.888s-.397-.164-.862-.386c-1.156-.553-1.024-.564-2.705.215-2.108.978-2.137.994-2.301 1.274a1 1 0 0 0-.031.972c.178.349.628.59.991.531.095-.015.792-.315 1.549-.667l1.375-.64.486.229c.268.126.93.444 1.473.707l.987.477.3.449c1.155 1.724 2.857 2.867 4.927 3.308.515.109.731.124 1.786.124s1.271-.015 1.786-.124c2.072-.441 3.771-1.583 4.921-3.305l.297-.446 1.098-.534c.604-.293 1.269-.613 1.477-.709l.379-.177 1.359.632c.747.347 1.445.647 1.551.667.375.07.822-.162 1.006-.522a1 1 0 0 0-.031-.972c-.164-.279-.189-.294-2.299-1.274-1.684-.782-1.559-.772-2.714-.216-.462.223-.847.397-.857.387-.009-.01-.004-.409.013-.888l.03-.87.592-.297c.326-.164.764-.376.974-.471l.381-.174 1.352.633c.743.348 1.432.649 1.53.668.207.041.557-.051.77-.203.369-.263.479-.867.233-1.287-.162-.277-.291-.348-2.306-1.282-1.657-.768-1.59-.76-2.531-.297-.361.178-.737.357-.834.398l-.177.074v-1.762l.945-.459c.52-.252.973-.458 1.006-.458.032 0 .665.281 1.406.626.74.344 1.425.639 1.522.655.202.033.52-.058.736-.209.369-.259.479-.866.233-1.285-.162-.277-.246-.324-2.252-1.257-1.192-.554-1.428-.646-1.656-.646-.232 0-.449.088-1.698.693l-1.432.694H9.19l-1.432-.694c-1.264-.612-1.463-.693-1.701-.692-.234.001-.482.1-1.856.742m17.772 5.164c-.001 2.232-.012 2.544-.102 2.98-.432 2.098-2.033 3.763-4.182 4.352-.394.108-.556.12-1.689.12s-1.295-.012-1.689-.12c-2.054-.562-3.565-2.062-4.138-4.105-.11-.395-.117-.535-.134-3.067l-.018-2.654h11.952zm-9.413-.392a1.1 1.1 0 0 0-.503.528c-.157.414.018.957.386 1.201l.216.143 3.257.014 3.257.015.237-.121c.687-.352.784-1.219.187-1.674l-.202-.154-3.337-.012c-2.708-.01-3.368.002-3.498.06m2.232 3.92c-.68.172-.987.9-.625 1.483.275.442.379.469 1.833.469s1.558-.027 1.833-.469a.96.96 0 0 0-.339-1.363c-.238-.14-.251-.142-1.387-.152-.631-.005-1.222.009-1.315.032"/></svg>

<svg width="32" height="32" viewBox="0 0 32 32" fill="none" xmlns="http://www.w3.org/2000/svg"><path d="M10.080 3.032 C 9.690 3.134,9.442 3.381,9.336 3.777 C 9.285 3.965,9.291 4.081,9.364 4.417 C 9.626 5.604,10.240 6.815,11.013 7.667 L 11.316 8.000 11.013 8.333 C 10.250 9.174,9.667 10.310,9.378 11.519 C 9.243 12.084,9.187 13.080,9.276 13.348 C 9.371 13.635,9.693 13.899,10.035 13.970 C 10.238 14.012,12.027 14.025,16.161 14.014 C 21.880 14.000,22.004 13.998,22.210 13.893 C 22.325 13.835,22.493 13.694,22.583 13.581 C 22.747 13.376,22.747 13.376,22.743 12.701 C 22.740 11.961,22.653 11.481,22.387 10.720 C 22.083 9.853,21.565 8.971,20.987 8.333 L 20.684 8.000 20.987 7.667 C 21.767 6.808,22.395 5.564,22.634 4.407 C 22.730 3.941,22.694 3.676,22.497 3.399 C 22.225 3.018,21.572 2.903,21.175 3.166 C 20.886 3.357,20.805 3.497,20.657 4.068 C 20.416 4.997,20.008 5.752,19.374 6.442 L 19.067 6.777 18.560 6.556 C 18.281 6.434,17.825 6.273,17.547 6.197 C 17.083 6.072,16.951 6.060,16.000 6.060 C 15.049 6.060,14.917 6.072,14.453 6.197 C 14.175 6.273,13.719 6.434,13.440 6.556 L 12.933 6.777 12.625 6.442 C 11.911 5.665,11.619 5.090,11.258 3.749 C 11.189 3.494,10.987 3.230,10.780 3.124 C 10.602 3.033,10.252 2.987,10.080 3.032 M16.640 8.056 C 17.576 8.207,18.473 8.672,19.202 9.387 C 19.929 10.100,20.358 10.816,20.614 11.747 L 20.684 12.000 15.997 12.000 C 12.272 12.000,11.314 11.986,11.331 11.933 C 11.717 10.695,12.019 10.161,12.743 9.434 C 13.822 8.349,15.272 7.837,16.640 8.056 M4.201 14.343 C 3.330 14.750,2.537 15.132,2.439 15.192 C 2.047 15.434,1.902 16.027,2.127 16.468 C 2.305 16.817,2.755 17.056,3.121 16.997 C 3.218 16.981,3.904 16.686,4.646 16.342 C 5.387 15.997,6.020 15.716,6.052 15.716 C 6.083 15.716,6.535 15.922,7.055 16.174 L 8.000 16.633 8.000 17.514 L 8.000 18.395 7.823 18.321 C 7.726 18.280,7.350 18.101,6.989 17.923 C 6.044 17.458,6.120 17.448,4.404 18.246 C 2.398 19.179,2.314 19.226,2.152 19.503 C 1.906 19.922,2.016 20.527,2.385 20.789 C 2.598 20.941,2.948 21.033,3.155 20.992 C 3.253 20.973,3.942 20.672,4.685 20.324 L 6.037 19.691 6.525 19.918 C 6.794 20.043,7.232 20.255,7.499 20.389 L 7.985 20.633 8.013 21.503 C 8.029 21.982,8.034 22.381,8.025 22.391 C 8.016 22.401,7.628 22.227,7.163 22.005 C 6.007 21.452,6.139 21.441,4.458 22.220 C 2.350 23.198,2.321 23.214,2.157 23.494 C 1.978 23.799,1.967 24.154,2.126 24.466 C 2.304 24.815,2.754 25.056,3.117 24.997 C 3.212 24.982,3.909 24.682,4.666 24.330 L 6.041 23.690 6.527 23.919 C 6.795 24.045,7.457 24.363,8.000 24.626 L 8.987 25.103 9.287 25.552 C 10.442 27.276,12.144 28.419,14.214 28.860 C 14.729 28.969,14.945 28.984,16.000 28.984 C 17.055 28.984,17.271 28.969,17.786 28.860 C 19.858 28.419,21.557 27.277,22.707 25.555 L 23.004 25.109 24.102 24.575 C 24.706 24.282,25.371 23.962,25.579 23.866 L 25.958 23.689 27.317 24.321 C 28.064 24.668,28.762 24.968,28.868 24.988 C 29.243 25.058,29.690 24.826,29.874 24.466 C 30.033 24.154,30.022 23.799,29.843 23.494 C 29.679 23.215,29.654 23.200,27.544 22.220 C 25.860 21.438,25.985 21.448,24.830 22.004 C 24.368 22.227,23.983 22.401,23.973 22.391 C 23.964 22.381,23.969 21.982,23.986 21.503 L 24.016 20.633 24.608 20.336 C 24.934 20.172,25.372 19.960,25.582 19.865 L 25.963 19.691 27.315 20.324 C 28.058 20.672,28.747 20.973,28.845 20.992 C 29.052 21.033,29.402 20.941,29.615 20.789 C 29.984 20.526,30.094 19.922,29.848 19.502 C 29.686 19.225,29.557 19.154,27.542 18.220 C 25.885 17.452,25.952 17.460,25.011 17.923 C 24.650 18.101,24.274 18.280,24.177 18.321 L 24.000 18.395 24.000 17.514 L 24.000 16.633 24.945 16.174 C 25.465 15.922,25.918 15.716,25.951 15.716 C 25.983 15.716,26.616 15.997,27.357 16.342 C 28.097 16.686,28.782 16.981,28.879 16.997 C 29.081 17.030,29.399 16.939,29.615 16.788 C 29.984 16.529,30.094 15.922,29.848 15.503 C 29.686 15.226,29.602 15.179,27.596 14.246 C 26.404 13.692,26.168 13.600,25.940 13.600 C 25.708 13.600,25.491 13.688,24.242 14.293 L 22.810 14.987 16.000 14.987 L 9.190 14.987 7.758 14.293 C 6.494 13.681,6.295 13.600,6.057 13.601 C 5.823 13.602,5.575 13.701,4.201 14.343 M21.973 19.507 C 21.972 21.739,21.961 22.051,21.871 22.487 C 21.439 24.585,19.838 26.250,17.689 26.839 C 17.295 26.947,17.133 26.959,16.000 26.959 C 14.867 26.959,14.705 26.947,14.311 26.839 C 12.257 26.277,10.746 24.777,10.173 22.734 C 10.063 22.339,10.056 22.199,10.039 19.667 L 10.021 17.013 15.997 17.013 L 21.973 17.013 21.973 19.507 M12.560 19.115 C 12.361 19.205,12.132 19.445,12.057 19.643 C 11.900 20.057,12.075 20.600,12.443 20.844 L 12.659 20.987 15.916 21.001 L 19.173 21.016 19.410 20.895 C 20.097 20.543,20.194 19.676,19.597 19.221 L 19.395 19.067 16.058 19.055 C 13.350 19.045,12.690 19.057,12.560 19.115 M14.792 23.035 C 14.112 23.207,13.805 23.935,14.167 24.518 C 14.442 24.960,14.546 24.987,16.000 24.987 C 17.454 24.987,17.558 24.960,17.833 24.518 C 18.132 24.036,17.984 23.443,17.494 23.155 C 17.256 23.015,17.243 23.013,16.107 23.003 C 15.476 22.998,14.885 23.012,14.792 23.035 " fill="#1A1C1F" stroke="none" fill-rule="evenodd"></path></svg>
